!!!COM: Palestrina, Giovanni Perluigi da
!!!OPR: Missa Quam pulchra es
!!!OMD: Credo
!!!OTL: First Section
**kern	**kern	**kern	**kern
*Ibass	*Itenor	*Icalto	*Icant
!Bassus	!Tenor	!Altus	!Cantus
*clefF4	*clefGv2	*clefG2	*clefG2
*k[]	*k[]	*k[]	*k[]
*C:ion	*C:ion	*C:ion	*C:ion
*M4/2	*M4/2	*M4/2	*M4/2
=1	=1	=1	=1
0r	1g	2r	1r
.	.	2g	.
.	2c	2g	2r
.	2c	2g	2cc
=2	=2	=2	=2
1r	2f	2a	2cc
.	2a	2a	2cc
1G	1g	1b	2dd
.	.	.	2dd
=3	=3	=3	=3
2C	1e	2g	1ee
2C	.	2g	.
2F	1r	2a	2cc
2A	.	2cc	2cc
=4	=4	=4	=4
2G	0r	2b	2dd
2F	.	2a	2ff
1G	.	2.b	2ee
.	.	.	2dd
.	.	4a	.
=5	=5	=5	=5
1C	2r	4g	4ee
.	.	4f	4dd
.	2c	2e	4cc
.	.	.	4b
1r	2d	4f	2.a
.	.	4g	.
.	2f	4a	.
.	.	4f	4b
=6	=6	=6	=6
0r	2e	2g	2cc
.	2d	2a	2dd
.	2.e	2g	2b
.	.	[2c	[2ee
.	4d	.	.
=7	=7	=7	=7
1r	4c	4c]	4ee]
.	4B	4d	4dd
.	2A	4e	1cc
.	.	4c	.
2r	1G	1d	.
2G	.	.	2b
=8	=8	=8	=8
2A	2c	4c	1cc
.	.	4d	.
2c	2c	4e	.
.	.	4f	.
2B	2d	2g	1r
2A	2f	2a	.
=9	=9	=9	=9
2c	2e	1g	0r
2B	2d	.	.
2.A	4e	1r	.
.	4d	.	.
.	4c	.	.
4G	4B	.	.
=10	=10	=10	=10
4F	4A	1r	2r
4G	4B	.	.
2E	1c	.	2cc
1D	.	2r	2dd
.	2B	2d	2ff
=11	=11	=11	=11
2C	1c	2e	4ee
.	.	.	4dd
2E	.	2g	4cc
.	.	.	4b
2F	2r	2.f	4a
.	.	.	4b
2A	2c	.	4cc
.	.	8e	4a
.	.	8f	.
=12	=12	=12	=12
2G	2d	2g	2b
4F	1f	1a	4a
4G	.	.	4b
4A	.	.	4cc
4B	.	.	4dd
[2c	4e	4g	[2ee
.	4d	4f	.
=13	=13	=13	=13
2c]	2e	2g	4ee]
.	.	.	4dd
2F	2f	2a	1cc
1G	2d	1g	.
.	2d	.	2b
=14	=14	=14	=14
0C	0c	1e	1cc
.	.	2r	2r
.	.	2e	2ee
=15	=15	=15	=15
0r	1r	1g	2dd
.	.	.	2ee
.	1A	2a	2cc
.	.	2a	[2ff
=16	=16	=16	=16
0r	1c	2.g	4ff]
.	.	.	4ee
.	.	.	1ee
.	.	8f	.
.	.	8e	.
.	2d	2f	.
.	2d	2f	2dd
=17	=17	=17	=17
2r	2c	2e	1ee
2E	4B	2e	.
.	4A	.	.
1G	2B	2d	1r
.	2B	[2e	.
=18	=18	=18	=18
1A	1c	4e]	2r
.	.	4d	.
.	.	4e	2e
.	.	4c	.
2.G	2B	2d	1g
.	2B	[2e	.
8F	.	.	.
8E	.	.	.
=19	=19	=19	=19
1F	2.A	2e]	1a
.	.	2d	.
.	4B	.	.
2C	2.c	1e	2.g
2C	.	.	.
.	4B	.	8f
.	.	.	8e
=20	=20	=20	=20
2D	1A	2r	1f
2D	.	2d	.
1E	2G	2B	1e
.	2g	2B	.
=21	=21	=21	=21
1C	2e	1c	2r
.	2e	.	2g
1r	1f	2A	2a
.	.	2d	2a
=22	=22	=22	=22
0r	2d	2G	2b
.	1e	2.g	4g
.	.	.	4a
.	.	.	4b
.	.	4e	4cc
.	4d	2f	[2dd
.	4c	.	.
=23	=23	=23	=23
1r	2B	2g	4dd]
.	.	.	4b
.	2A	2.a	2cc
2r	2e	.	2b
.	.	4g	.
2C	2e	[2g	2cc
=24	=24	=24	=24
2D	2.d	2g]	2a
2D	.	2f#	2a
.	4c	.	.
2E	2B	2g	[1g
4C	[2c	[2e	.
4D	.	.	.
=25	=25	=25	=25
4E	2c]	2e]	0g]
4F	.	.	.
4G	2B	4d	.
4A	.	4c	.
4B	2.G	2d	.
4c	.	.	.
[2d	.	2B	.
.	4A	.	.
=26	=26	=26	=26
2d]	2B	2d	2r
1c	2c	2e	1g
.	1G	1d	.
2B	.	.	2d
=27	=27	=27	=27
2.c	2r	1g	4e
.	.	.	4f
.	2c	.	4g
8B	.	.	4a
8A	.	.	.
2G	2d	2g	4b
.	.	.	4cc
2F	[2f	[2a	[2dd
=28	=28	=28	=28
1A	4f]	2a]	4dd]
.	4e	.	4cc
.	4d	2f	1cc
.	4c	.	.
1G	2d	1g	.
.	2d	.	2b
=29	=29	=29	=29
0C	2c	2r	0cc
.	1e	1g	.
.	2c	2e	.
=30	=30	=30	=30
1r	2d	2f	1r
.	2e	2g	.
2r	2f	1a	[1cc
[2A	4e	.	.
.	4d	.	.
=31	=31	=31	=31
2A]	2e	1a	2cc]
2F	2f	.	2a
2G	2d	2r	2b
2A	[2a	[2f	2cc
=32	=32	=32	=32
1B-	2a]	2f]	1dd
.	2g	2d	.
1A	1a	2e	1cc
.	.	2f	.
=33	=33	=33	=33
0r	2r	2.g	2.b
.	1e	.	.
.	.	4f	4a
.	.	2g	2b
.	2c	[2a	2cc
=34	=34	=34	=34
1r	2d	2a]	1b
.	2e	2g#	.
2r	2f	[1a	4a
.	.	.	4b
[2A	4e	.	4cc
.	4d	.	4dd
=35	=35	=35	=35
2A]	4c	1a]	2ee
.	8d	.	.
.	8e	.	.
2F	2f	.	1dd
2G	1e	1r	.
2A	.	.	2cc#
=36	=36	=36	=36
4B-	1.d	0r	1dd
4A	.	.	.
4G	.	.	.
4F	.	.	.
2G	.	.	1r
[2A	2c	.	.
=37	=37	=37	=37
2A]	1B	1r	2r
2G#	.	.	2ee
1A	2r	2r	2ee
.	2A	2a	2cc
=38	=38	=38	=38
0r	2d	2a	1dd
.	2d	2f	.
.	2.c	2g	2.ee
.	.	[2a	.
.	4d	.	8dd
.	.	.	8cc
=39	=39	=39	=39
0r	2e	4a]	2b
.	.	4g	.
.	2c	1g	2cc
.	1d	.	1a
.	.	2f#	.
=40	=40	=40	=40
2r	1e	1g	2r
2E	.	.	2b
2A	2e	1r	2cc
2A	2c	.	2cc
=41	=41	=41	=41
2G	2d	1r	2b
2F	2d	.	2a
1E	2.e	2r	4g
.	.	.	4a
.	.	[2g	4b
.	8d	.	4cc
.	8c	.	.
=42	=42	=42	=42
2r	2B	2g]	4dd
.	.	.	8cc
.	.	.	8dd
1c	2c	2e	2ee
.	1A	1f	1cc
2A	.	.	.
=43	=43	=43	=43
1B	1G	2.g	1r
.	.	4f	.
[1c	1r	4e	[1ee
.	.	4d	.
.	.	2c	.
=44	=44	=44	=44
2c]	2r	1cc	2ee]
2A	1a	.	2cc
1d	.	2a	1dd
.	2f	2b	.
=45	=45	=45	=45
1c	1g	0cc	1ee
2r	2.a	.	1ee
2A	.	.	.
.	8g	.	.
.	8f	.	.
=46	=46	=46	=46
2A	2e	1a	1.cc
2F	2f	.	.
1G	1d	1g	.
.	.	.	2b
=47	=47	=47	=47
2.A	2c	2.e	2.a
.	2.e	.	.
8G	.	4f	4b
8F	.	.	.
2E	.	2g	1cc
.	4d	.	.
2F	[2c	2a	.
=48	=48	=48	=48
1D	2c]	1f	1dd
.	2B	.	.
1C	[1c	2e	[1ee
.	.	[2g	.
=49	=49	=49	=49
2r	1c]	2g]	1ee]
1c	.	2g	.
.	1r	2a	1r
2c	.	2cc	.
=50	=50	=50	=50
2d	1r	4b	2r
.	.	4a	.
2B	.	4g	1g
.	.	4f	.
2.c	2r	4e	.
.	.	4f	.
.	[2c	[2g	2g
4B	.	.	.
=51	=51	=51	=51
4A	2c]	2g]	2a
4G	.	.	.
2A	2c	2f#	2cc
1G	2d	2g	4b
.	.	.	4a
.	2B	[2g	4g
.	.	.	4f
=52	=52	=52	=52
0r	2.c	2g]	4e
.	.	.	4f
.	.	2g	1g
.	4B	.	.
.	4A	2a	.
.	4G	.	.
.	2A	2cc	2f#
=53	=53	=53	=53
2r	1G	4b	2.g
.	.	4a	.
1G	.	4g	.
.	.	4f	4a
.	1g	2e	4b
.	.	.	4cc
2G	.	2d	4dd
.	.	.	4b
=54	=54	=54	=54
2A	2e	1a	2cc
2F	1d	.	2dd
2.G	.	2g	1b
.	2d	[2g	.
4F	.	.	.
=55	=55	=55	=55
4E	2e	2g]	1r
4D	.	.	.
2E	2c	2g	.
1D	2.d	2f	2r
.	.	2a	[2dd
.	4c	.	.
=56	=56	=56	=56
1G	4B	2.g	2dd]
.	4A	.	.
.	2B	.	2dd
.	.	4f	.
1C	2c	4e	2ee
.	.	4d	.
.	2g	2e	2cc
=57	=57	=57	=57
0r	2f	2d	2.dd
.	2.g	2G	.
.	.	.	4cc
.	.	2.g	4b
.	4f	.	4a
.	4e	.	2b
.	4d	4f	.
=58	=58	=58	=58
0r	1c	4e	1cc
.	.	4c	.
.	.	2.g	.
.	1d	.	1a
.	.	8f#	.
.	.	8e	.
.	.	2f#	.
=59	=59	=59	=59
2r	2e	1g	2g
1c	2g	.	1ee
.	2g	1r	.
2c	2a	.	2ee
=60	=60	=60	=60
2d	2f	2r	2ff
2B	4g	1g	2dd
.	4f	.	.
2.c	4e	.	2ee
.	4d	.	.
.	[2e	2g	4ee
4B	.	.	4dd
=61	=61	=61	=61
4A	2e]	2a	4cc
4G	.	.	4b
2A	2c	4f	1cc
.	.	4f	.
2G	1d	2g	.
2G	.	2g	2b
=62	=62	=62	=62
0C	1c	2e	2.cc
.	.	1g	.
.	.	.	4dd
.	2r	.	1ee
.	2c	2cc	.
=63	=63	=63	=63
2r	2f	2a	0r
2G	2d	2.b	.
2c	1e	.	.
.	.	4a	.
2A	.	[2a	.
=64	=64	=64	=64
1B	2.d	2a]	2r
.	.	1g	2g
.	4d	.	.
2.A	1c	.	2cc
.	.	2f#	2a
4A	.	.	.
=65	=65	=65	=65
1G	1d	2g	1b
.	.	2g	.
1r	2r	2cc	2.a
.	2d	2a	.
.	.	.	4a
=66	=66	=66	=66
0r	2g	1b	2g
.	2e	.	2g
.	1f	2a	2cc
.	.	[2dd	2a
=67	=67	=67	=67
0r	2e	4dd]	2b
.	.	8cc	.
.	.	8b	.
.	2.a	2cc	2a
.	.	2.b	2r
.	8g	.	.
.	8f#	.	.
.	2g	.	[2dd
.	.	8a	.
.	.	8g	.
=68	=68	=68	=68
0r	2.f	4a	4dd]
.	.	4f	8cc
.	.	.	8b
.	.	2.a	2cc
.	8e	.	.
.	8d	.	.
.	1e	.	2.b
.	.	4g	.
.	.	[2g	.
.	.	.	8a
.	.	.	8g
=69	=69	=69	=69
1r	1d	2g]	1a
.	.	2f#	.
2r	1G	2.g	1b
2G	.	.	.
.	.	4f	.
=70	=70	=70	=70
2A	1c	1e	0r
2c	.	.	.
2B	2d	1r	.
[2A	2f	.	.
=71	=71	=71	=71
4A]	2e	2r	0r
4G	.	.	.
2F	4d	2f	.
.	4c	.	.
4E	2e	2g	.
4F	.	.	.
4G	[2d	2b-	.
8F	.	.	.
8G	.	.	.
=72	=72	=72	=72
2F	4d]	2a	2r
.	4c	.	.
2E	1c	2g	2cc
1D	.	2.f	2dd
.	2B	.	2ff
.	.	8e	.
.	.	8d	.
=73	=73	=73	=73
2C	1c	2g	2ee
2F	.	2a	4dd
.	.	.	4cc
2G	2r	2g	2ee
2B-	2d	2f	2dd
=74	=74	=74	=74
2A	2e	1.a	2cc
4G	2f	.	2.dd
4F	.	.	.
1A	2e	.	.
.	.	.	4cc
.	4d	2f	[2cc
.	4c	.	.
=75	=75	=75	=75
0G	1e	0g	2cc]
.	.	.	4b
.	.	.	4a
.	1d	.	1b
=76	=76	=76	=76
1C	2c	2r	1cc
.	2g	2e	.
2r	1g	[1e	2r
2c	.	.	2ee
=77	=77	=77	=77
1c	1e	2e]	1ee
.	.	2g	.
2A	1f	2a	2cc
[2B-	.	2d	[2dd
=78	=78	=78	=78
2B-]	2d	2f	2dd]
4A	1e	2.g	4cc
4G	.	.	4b-
2A	.	.	2cc
.	.	8f#	.
.	.	8e	.
2A	4d	2f#	2cc
.	4c	.	.
=79	=79	=79	=79
0G	2d	1g	2b
.	2d	.	2b
.	2d	2r	2b
.	2d	2g	2b
=80	=80	=80	=80
0r	2B	2g	2dd
.	1c	2g	1ee
.	.	2e	.
.	4B	[2a	4dd
.	4A	.	4cc
=81	=81	=81	=81
1r	1B	4a]	1dd
.	.	8g#	.
.	.	8f#	.
.	.	2g#	.
2r	2A	1a	2cc
[2A	2e	.	[2cc
=82	=82	=82	=82
2A]	2c	2e	2cc]
2F	1d	2f	2a
1G	.	1d	1b
.	2B	.	.
=83	=83	=83	=83
2E	1c	2e	2g
1F	.	2.c	1a
.	2A	.	.
.	.	4A	.
4E	[2B	[2d	4g
4D	.	.	4f
=84	=84	=84	=84
2E	2B]	2d]	2g
2E	4A	2c#	2g
.	4G	.	.
1D	2A	1d	1f
.	2a	.	.
=85	=85	=85	=85
2r	1a	1d	1ff
2d	.	.	.
2d	2f	2r	2ff
2B	2g	2g	2dd
=86	=86	=86	=86
1c	4e	2g	1ee
.	4f	.	.
.	4g	2e	.
.	4e	.	.
2A	4a	2f	2cc
.	4g	.	.
[2B-	4f	4d	[2dd
.	4e	4e	.
=87	=87	=87	=87
2B-]	2d	4f	2dd]
.	.	4d	.
4A	1e	1g	4cc
4G	.	.	4b-
1A	.	.	1cc
.	4d	2f#	.
.	4c	.	.
=88	=88	=88	=88
1G	1d	[0g	[0b
2.E	1e	.	.
4F	.	.	.
=89	=89	=89	=89
0G	0d	0g]	0b]
*-	*-	*-	*-
!!!CDT: 1525/^1526/-1594/2/2
!!!OCY: Italia
!!!AGN: Mass (Parody)
!!!AST: renaissance, vocal
!!!ASW: Motet 1532 (Johannes Lupi)
!!!PWK: Masses, Book 6
!!!RNB: Cadence finals: G
!!!YOR: Le Opere Complete, v. 21, p. 73
!!!YOO: Rome, Italy: Fratelli Scalera
!!!END: 1992//
!!!EED: John Miller
!!!YEC: Copyright 2000, John Miller
!!!YEN: United States of America
!!!YEM: Rights to all derivative electronic formats reserved.
!!!YEM: Refer to licensing agreement for further details.
!!!YEM: This file must be accompanied by the licensing agreement.
!!!YEM: A copy of the licensing agreement may be found at http://www.music-cog.ohio-state.edu/HumdrumDatabases/Palestrina/license.txt
!!!EMD: converted to Humdrum by Bret Aarden
